X:1
T:Always and All for Jesus
T:Always and All for Jesus
T:Joseph Henry Keagle
T:Joseph Henry Keagle, 1896
T:Public Domain Courtesy of the Cyber Hymnal™
T:Public Domain Courtesy of the Cyber Hymnal™
C:Joseph Henry Keagle
Z:Public Domain
Z:Courtesy of the Cyber Hymnal™
%%score ( 1 2 ) ( 3 4 )
L:1/8
Q:1/4=95
M:6/8
K:F
V:1 treble 
V:2 treble 
V:3 bass 
V:4 bass 
V:1
 [Ac][Ac][Ac] [Ac][^G=B][Ac] | [Bd][Ac][^G=B] [Ac]2 z | [FA][FA][FA] [FB]2 [FA] | [FA]3 [EG]2 z | %4
w: 1.~Let us go forth to our|la- bor of love,|“Al- ways and all for|Je- sus”;|
w: 2.~Great is the work, and the|work- ers are few,|“Al- ways and all for|Je- sus”;|
w: 3.~Work till the sum- mons of|“Ye bless- èd, come,”|“Al- ways and all for|Je- sus”;|
 [GB][GB][GB] [GB][^FA][GB] | [ce][ce][Bd] [Ac]2 z | [EB][EB][EB] [Ec]2 [EB] | [GB]3 [FA]2 z | %8
w: Zeal- ous to glean for the|gar- ners a- bove,|“Al- ways and all for|Je- sus”;|
w: Do with your might what your|hands find to do,|“Al- ways and all for|Je- sus”;|
w: Calls us to join in the|glad har- vest home,|“Al- ways and all for|Je- sus”;|
 [Ac][Ac][Ac] [Ac][^G=B][Ac] | [Bd][Ac][^G=B] [Ac]2 z | [FA][FA][Ac] [Af]2 [Ae] | [Be]3 [Bd]2 z | %12
w: Strength for the work we re-|ceive from the King,|“Al- ways and all for|Je- sus”;|
w: Stand not in i- dle- ness|all the day long,|“Al- ways and all for|Je- sus”;|
w: Then with the sheaves we have|ga- thered in love,|“Al- ways and all for|Je- sus”;|
 [EG][EG][GB] [ce][Bd][Bd] | [Bd][Ac][^G=B] [Ac]2 z | C[CD][CE] [CB]2 [CE] | [CG]3 [CF]2 z || %16
w: No- bo- dy fails who is|trust- ing in Him,|“Al- ways and all for|Je- sus.”|
w: Strive for a part in the|har- vest- ers’ song,|“Al- ways and all for|Je- sus.”|
w: Safe we’ll be housed in the|gar- ners a- bove,|“Al- ways and all for|Je- sus.”|
"^Refrain" [Ac][Ac][Ac] [^G=B]2 [Ac] | [^Gd]3 [Ac]2 z | [FA][FA][FA] [FA]2 [FA] | [EG]3- [EG]2 z | %20
w: ||||
w: Al- ways and all for|Je- sus,|Sing with a glad re-|frain, *|
w: ||||
 [GB][GB][GB] [^FA]2 [GB] | [ce]3 [Bd]2 z | [GB][GB][GB] [Ac]2 [GB] | [FA]3- [FA]2 z | %24
w: ||||
w: Al- ways and all for|Je- sus,|Till our Lord comes a-|gain; *|
w: ||||
 [Ac][Ac][Ac] [^G=B]2 [Ac] | [^Gd]3 [Ac]2 z | [FA][GB][Ac] [df]2 [ce] | [Bd]3- [Bd]2 [Bd] | %28
w: ||||
w: Al- ways and all for|Je- sus,|Glad- ly we yield Thine|own. * The|
w: ||||
"^riten." [Bd][Bd][Bd] [Ac][Ac][Ac] | [GB][GB][GB] [^FA]2 [FA] | GC (D/E/) !fermata![FA]2 G | %31
w: |||
w: har- vest shall end, And our|Lord shall des- cend, To|ga- ther His * reap- ers|
w: |||
 [CF]3- [CF]2 z |] %32
w: |
w: home. *|
w: |
V:2
 x6 | x6 | x6 | x6 | x6 | x6 | x6 | x6 | x6 | x6 | x6 | x6 | x6 | x6 | C x5 | x6 || x6 | x6 | x6 | %19
 x6 | x6 | x6 | x6 | x6 | x6 | x6 | x6 | x6 | x6 | x6 | GCD/E/ x3/2 (E/C/) x/ | x6 |] %32
V:3
 z6 | z6 | [F,C][F,C][F,C] [F,D]2 [F,C] | [C,C]3 [C,C]2 z | z6 | z6 | %6
w: ||~ ~ ~ ~ ~|~ ~|||
 [C,G,][C,G,][C,G,] [C,G,]2 [C,C] | [E,C]3 [F,C]2 z | z6 | z6 | [F,C][F,C][F,C] [F,C]2 [F,C] | %11
w: ~ ~ ~ ~ ~|~ ~|||~ ~ ~ ~ ~|
 [B,,B,]3 [B,,B,]2 z | z6 | z6 | [C,B,][C,B,][C,B,] [C,G,]2 [C,B,] | [C,B,]3 [F,A,]2 z || %16
w: ~ ~|||~ ~ ~ ~ ~|~ ~|
 [F,C][F,C][F,C] [F,D]2 [F,C] | [F,=B,]2 [F,B,] [F,C]2 [F,C] | [F,C][F,C][F,C] [F,D]2 [F,C] | %19
w: ~ ~ ~ ~ ~|Je- sus, Je- sus,|~ ~ ~ ~ a|
 [C,C]2 [C,C] [C,C]2 z | [C,C][C,C][C,C] [C,C]2 [C,C] | [C,C]2 [C,C] [C,C]2 [C,C] | %22
w: glad re- frain,|~ ~ ~ ~ ~|Je- sus, Je- sus,|
 [E,C][E,C][E,C] [C,C]2 [E,C] | [F,C]2 [F,C] [F,C]2 z | [F,C][F,C][F,C] [F,D]2 [F,C] | %25
w: ~ ~ ~ ~ ~|~ a- gain,|~ ~ ~ ~ ~|
 [F,=B,]2 [F,B,] [F,C]2 [F,C] | [F,C][F,C][F,C] [B,,B,]2 [B,,B,] | %27
w: Je- sus, Je- sus,|~ ~ ~ ~ ~|
 [B,,B,]2 [B,,B,] [B,,B,]2 [B,D] | [B,D][B,D][B,D] [A,C][A,C][A,C] | %29
w: ~ Thine own, *||
 [G,B,][G,B,][G,B,] [^F,A,]2 [F,A,] | G,C,D,/E,/ !fermata![C,C]2 [C,B,] | [F,A,]3- [F,A,]2 z |] %32
w: |||
V:4
 x6 | x6 | x6 | x6 | x6 | x6 | x6 | x6 | x6 | x6 | x6 | x6 | x6 | x6 | x6 | x6 || x6 | x6 | x6 | %19
 x6 | x6 | x6 | x6 | x6 | x6 | x6 | x6 | x6 | x6 | x6 | G,C, (D,/E,/) x3 | x6 |] %32

